src/pos-icons/virus.svg

<svg height="24" viewBox="0 0 24 24" width="24" xmlns="http://www.w3.org/2000/svg"><path d="m19.82 14c.31.45.84.75 1.43.75.97 0 1.75-.78 1.75-1.75s-.78-1.75-1.75-1.75c-.59 0-1.12.3-1.43.75h-.82c0-1.57-.5-3-1.4-4.19l1.34-1.34c.56.1 1.13-.06 1.56-.47.67-.69.67-1.8 0-2.5-.69-.67-1.8-.67-2.5 0-.41.43-.57 1-.47 1.56l-1.34 1.34c-.92-.69-2-1.15-3.19-1.32v-1.4c.45-.31.75-.84.75-1.43 0-.97-.78-1.75-1.75-1.75s-1.75.78-1.75 1.75c0 .59.3 1.12.75 1.43v1.4c-.9.13-1.74.42-2.5.86l-1.11-1.59c.19-.52.14-1.12-.2-1.6-.56-.79-1.65-.99-2.44-.43-.79.55-.99 1.64-.43 2.43.34.49.88.75 1.43.75l1.18 1.68c-.43.43-.77.91-1.06 1.44-.62-.24-1.37-.12-1.87.38-.67.7-.67 1.8 0 2.5.29.27.64.43 1 .5 0 .54.07 1.06.18 1.56l-1.31.35c-.42-.35-1-.5-1.58-.35-.93.25-1.482 1.21-1.23 2.15.25.93 1.22 1.48 2.15 1.23.57-.16 1-.58 1.18-1.1l1.51-.41c.45.79 1.05 1.49 1.75 2.07l-1.1 2c-.55.08-1.05.39-1.34.92-.46.85-.14 1.91.71 2.37s1.91.14 2.37-.71c.28-.52.27-1.12.02-1.61l1.07-1.97c.81.32 1.69.5 2.62.5h.18c-.13.26-.18.56-.18.88.08.97.92 1.69 1.88 1.62s1.69-.92 1.62-1.88c-.04-.5-.29-.94-.65-1.23.47-.21.92-.48 1.34-.79l2.34 2.34c-.1.56.06 1.13.47 1.56.7.67 1.8.67 2.5 0s.67-1.8 0-2.5c-.43-.41-1-.57-1.56-.47l-2.34-2.34c.49-.65.87-1.39 1.11-2.19zm-9.32-2c-.83 0-1.5-.67-1.5-1.5s.67-1.5 1.5-1.5 1.5.67 1.5 1.5-.67 1.5-1.5 1.5m3.5 3c-.55 0-1-.45-1-1s.45-1 1-1 1 .45 1 1-.45 1-1 1z"/></svg>

<?xml version="1.0" encoding="UTF-8"?><!DOCTYPE svg PUBLIC "-//W3C//DTD SVG 1.1//EN" "http://www.w3.org/Graphics/SVG/1.1/DTD/svg11.dtd"><svg xmlns="http://www.w3.org/2000/svg" xmlns:xlink="http://www.w3.org/1999/xlink" version="1.1" id="mdi-virus" width="24" height="24" viewBox="0 0 24 24"><path d="M19.82 14C20.13 14.45 20.66 14.75 21.25 14.75C22.22 14.75 23 13.97 23 13S22.22 11.25 21.25 11.25C20.66 11.25 20.13 11.55 19.82 12H19C19 10.43 18.5 9 17.6 7.81L18.94 6.47C19.5 6.57 20.07 6.41 20.5 6C21.17 5.31 21.17 4.2 20.5 3.5C19.81 2.83 18.7 2.83 18 3.5C17.59 3.93 17.43 4.5 17.53 5.06L16.19 6.4C15.27 5.71 14.19 5.25 13 5.08V3.68C13.45 3.37 13.75 2.84 13.75 2.25C13.75 1.28 12.97 .5 12 .5S10.25 1.28 10.25 2.25C10.25 2.84 10.55 3.37 11 3.68V5.08C10.1 5.21 9.26 5.5 8.5 5.94L7.39 4.35C7.58 3.83 7.53 3.23 7.19 2.75C6.63 1.96 5.54 1.76 4.75 2.32C3.96 2.87 3.76 3.96 4.32 4.75C4.66 5.24 5.2 5.5 5.75 5.5L6.93 7.18C6.5 7.61 6.16 8.09 5.87 8.62C5.25 8.38 4.5 8.5 4 9C3.33 9.7 3.33 10.8 4 11.5C4.29 11.77 4.64 11.93 5 12L5 12C5 12.54 5.07 13.06 5.18 13.56L3.87 13.91C3.45 13.56 2.87 13.41 2.29 13.56C1.36 13.81 .808 14.77 1.06 15.71C1.31 16.64 2.28 17.19 3.21 16.94C3.78 16.78 4.21 16.36 4.39 15.84L5.9 15.43C6.35 16.22 6.95 16.92 7.65 17.5L6.55 19.5C6 19.58 5.5 19.89 5.21 20.42C4.75 21.27 5.07 22.33 5.92 22.79C6.77 23.25 7.83 22.93 8.29 22.08C8.57 21.56 8.56 20.96 8.31 20.47L9.38 18.5C10.19 18.82 11.07 19 12 19C12.06 19 12.12 19 12.18 19C12.05 19.26 12 19.56 12 19.88C12.08 20.85 12.92 21.57 13.88 21.5S15.57 20.58 15.5 19.62C15.46 19.12 15.21 18.68 14.85 18.39C15.32 18.18 15.77 17.91 16.19 17.6L18.53 19.94C18.43 20.5 18.59 21.07 19 21.5C19.7 22.17 20.8 22.17 21.5 21.5S22.17 19.7 21.5 19C21.07 18.59 20.5 18.43 19.94 18.53L17.6 16.19C18.09 15.54 18.47 14.8 18.71 14H19.82M10.5 12C9.67 12 9 11.33 9 10.5S9.67 9 10.5 9 12 9.67 12 10.5 11.33 12 10.5 12M14 15C13.45 15 13 14.55 13 14C13 13.45 13.45 13 14 13S15 13.45 15 14C15 14.55 14.55 15 14 15Z" /></svg>
